public/aw.svg

<svg width="1100" height="220" viewBox="0 0 1100 220" fill="none" xmlns="http://www.w3.org/2000/svg"><path d="M331.592 124.896l-9.72-28.728c-.72-1.824-1.488-3.96-2.304-6.408a212.028 212.028 0 01-2.448-8.064 113.36 113.36 0 01-2.304 8.136c-.816 2.496-1.584 4.656-2.304 6.48l-9.648 28.584h28.728zM370.256 165h-18.864c-2.112 0-3.816-.48-5.112-1.44a9.654 9.654 0 01-2.952-3.816l-6.192-18.288h-39.888l-6.192 18.288c-.528 1.344-1.488 2.568-2.88 3.672-1.344 1.056-3.024 1.584-5.04 1.584h-19.008l40.608-104.904h24.912L370.256 165zm26.559-63.144c2.304-4.032 4.944-7.2 7.92-9.504 3.024-2.304 6.48-3.456 10.368-3.456 3.36 0 6.096.792 8.208 2.376l-1.44 16.416c-.24 1.056-.648 1.776-1.224 2.16-.528.384-1.272.576-2.232.576-.384 0-.888-.024-1.512-.072-.624-.048-1.272-.096-1.944-.144a27.883 27.883 0 00-2.088-.216 13.293 13.293 0 00-1.872-.144c-3.264 0-5.88.864-7.848 2.592-1.92 1.728-3.552 4.128-4.896 7.2V165h-22.32V90.336h13.248c1.104 0 2.016.096 2.736.288.768.192 1.392.504 1.872.936.528.384.912.912 1.152 1.584.288.672.528 1.488.72 2.448l1.152 6.264zm78.528-9c-6.24 0-11.808 4.224-16.704 12.672-4.896 8.352-7.344 16.704-7.344 25.056 0 17.472 4.512 26.208 13.536 26.208 6.432 0 11.664-4.176 15.696-12.528 4.032-8.448 6.048-17.904 6.048-28.368 0-15.36-3.744-23.04-11.232-23.04zm-12.24-12.96c1.056 0 2.016.336 2.88 1.008.96.576 1.44 1.2 1.44 1.872-9.696 6.72-15.504 16.08-17.424 28.08 2.016-5.376 4.464-10.032 7.344-13.968 2.976-3.936 6.048-6.912 9.216-8.928 6.048-3.744 11.952-5.616 17.712-5.616s10.656 2.832 14.688 8.496c4.032 5.664 6.048 13.248 6.048 22.752 0 10.656-2.16 20.448-6.48 29.376-4.8 10.08-11.616 17.04-20.448 20.88-4.992 2.208-10.464 3.312-16.416 3.312-8.352 0-15.648-3.216-21.888-9.648-6.144-6.528-9.216-15.84-9.216-27.936 0-12.192 2.976-22.896 8.928-32.112 5.952-9.312 13.824-15.168 23.616-17.568zM540.386 98.4a54.227 54.227 0 014.464-3.744 25.19 25.19 0 014.896-2.88 27.256 27.256 0 015.688-1.872c2.064-.48 4.296-.72 6.696-.72 4.08 0 7.68.72 10.8 2.16 3.168 1.392 5.832 3.36 7.992 5.904 2.16 2.496 3.792 5.496 4.896 9 1.104 3.456 1.656 7.224 1.656 11.304V165h-22.32v-47.448c0-3.648-.84-6.48-2.52-8.496-1.68-2.064-4.152-3.096-7.416-3.096-2.448 0-4.752.528-6.912 1.584-2.112 1.008-4.176 2.4-6.192 4.176V165h-22.32V90.336h13.824c2.784 0 4.608 1.248 5.472 3.744l1.296 4.32zm207.045-38.304L715.031 165h-22.032l-19.728-65.016a38.438 38.438 0 01-1.08-3.312 223.142 223.142 0 01-1.008-3.888c-.336 1.344-.672 2.64-1.008 3.888a38.438 38.438 0 01-1.08 3.312L649.079 165h-22.032l-32.4-104.904h20.448c2.112 0 3.864.48 5.256 1.44 1.44.96 2.376 2.232 2.808 3.816l14.4 54.72c.432 1.728.864 3.624 1.296 5.688.432 2.016.864 4.128 1.296 6.336.864-4.512 1.92-8.52 3.168-12.024l16.992-54.72c.432-1.344 1.344-2.544 2.736-3.6 1.44-1.104 3.168-1.656 5.184-1.656h7.2c2.112 0 3.816.504 5.112 1.512 1.296.96 2.28 2.208 2.952 3.744l16.848 54.72c1.248 3.36 2.304 7.176 3.168 11.448a234.2 234.2 0 011.152-6.048c.432-1.92.864-3.72 1.296-5.4l14.4-54.72c.384-1.392 1.296-2.616 2.736-3.672 1.44-1.056 3.168-1.584 5.184-1.584h19.152zm52.334 32.76c-6.24 0-11.808 4.224-16.704 12.672-4.896 8.352-7.344 16.704-7.344 25.056 0 17.472 4.512 26.208 13.536 26.208 6.432 0 11.664-4.176 15.696-12.528 4.032-8.448 6.048-17.904 6.048-28.368 0-15.36-3.744-23.04-11.232-23.04zm-12.24-12.96c1.056 0 2.016.336 2.88 1.008.96.576 1.44 1.2 1.44 1.872-9.696 6.72-15.504 16.08-17.424 28.08 2.016-5.376 4.464-10.032 7.344-13.968 2.976-3.936 6.048-6.912 9.216-8.928 6.048-3.744 11.952-5.616 17.712-5.616s10.656 2.832 14.688 8.496c4.032 5.664 6.048 13.248 6.048 22.752 0 10.656-2.16 20.448-6.48 29.376-4.8 10.08-11.616 17.04-20.448 20.88-4.992 2.208-10.464 3.312-16.416 3.312-8.352 0-15.648-3.216-21.888-9.648-6.144-6.528-9.216-15.84-9.216-27.936 0-12.192 2.976-22.896 8.928-32.112 5.952-9.312 13.824-15.168 23.616-17.568zm77.571 21.96c2.304-4.032 4.944-7.2 7.92-9.504 3.024-2.304 6.48-3.456 10.368-3.456 3.36 0 6.096.792 8.208 2.376l-1.44 16.416c-.24 1.056-.648 1.776-1.224 2.16-.528.384-1.272.576-2.232.576-.384 0-.888-.024-1.512-.072-.624-.048-1.272-.096-1.944-.144a27.883 27.883 0 00-2.088-.216 13.293 13.293 0 00-1.872-.144c-3.264 0-5.88.864-7.848 2.592-1.92 1.728-3.552 4.128-4.896 7.2V165h-22.32V90.336h13.248c1.104 0 2.016.096 2.736.288.768.192 1.392.504 1.872.936.528.384.912.912 1.152 1.584.288.672.528 1.488.72 2.448l1.152 6.264zm56.425-44.64v60.408h3.312c1.392 0 2.448-.192 3.168-.576.72-.432 1.44-1.128 2.16-2.088l14.112-21.024c.864-1.2 1.848-2.088 2.952-2.664 1.104-.624 2.52-.936 4.248-.936h20.448l-19.296 26.568c-1.824 2.4-3.984 4.368-6.48 5.904a17.11 17.11 0 013.024 2.88 26.667 26.667 0 012.592 3.6L972.785 165h-20.16c-1.68 0-3.12-.264-4.32-.792-1.2-.576-2.208-1.56-3.024-2.952l-14.112-26.424c-.672-1.2-1.368-1.968-2.088-2.304-.72-.384-1.8-.576-3.24-.576h-4.32V165h-22.32V57.216h22.32zm105.569 49.464c-.58.912-1.2 1.56-1.88 1.944-.62.384-1.44.576-2.44.576-1.06 0-2.12-.216-3.17-.648-1.06-.48-2.21-.984-3.46-1.512-1.2-.528-2.57-1.008-4.1-1.44-1.54-.48-3.29-.72-5.26-.72-2.83 0-5.01.552-6.55 1.656-1.488 1.056-2.232 2.544-2.232 4.464 0 1.392.48 2.544 1.44 3.456 1.012.912 2.332 1.728 3.962 2.448 1.63.672 3.48 1.32 5.54 1.944 2.07.624 4.18 1.32 6.34 2.088s4.27 1.68 6.33 2.736a22.223 22.223 0 015.55 3.816c1.63 1.488 2.93 3.312 3.89 5.472 1 2.16 1.51 4.752 1.51 7.776 0 3.696-.67 7.104-2.02 10.224-1.34 3.12-3.36 5.808-6.05 8.064-2.64 2.256-5.92 4.008-9.86 5.256-3.89 1.248-8.38 1.872-13.46 1.872a41.09 41.09 0 01-7.636-.72 54.258 54.258 0 01-7.416-1.944 42.865 42.865 0 01-6.552-2.88c-2.016-1.152-3.744-2.376-5.184-3.672l5.184-8.208c.576-.96 1.296-1.704 2.16-2.232.912-.576 2.064-.864 3.456-.864 1.296 0 2.448.288 3.456.864 1.056.576 2.184 1.2 3.384 1.872 1.2.672 2.592 1.296 4.176 1.872 1.632.576 3.672.864 6.122.864 1.73 0 3.19-.168 4.39-.504 1.2-.384 2.16-.888 2.88-1.512.72-.624 1.25-1.32 1.58-2.088.34-.768.51-1.56.51-2.376 0-1.488-.51-2.712-1.51-3.672-1.01-.96-2.33-1.776-3.96-2.448-1.64-.72-3.51-1.368-5.62-1.944a138.997 138.997 0 01-6.336-2.088 57.089 57.089 0 01-6.408-2.736 23.402 23.402 0 01-5.544-4.104c-1.632-1.68-2.952-3.72-3.96-6.12s-1.512-5.304-1.512-8.712c0-3.168.6-6.168 1.8-9 1.248-2.88 3.096-5.4 5.544-7.56 2.448-2.16 5.52-3.864 9.216-5.112 3.696-1.296 8.02-1.944 12.96-1.944 2.69 0 5.28.24 7.78.72 2.54.48 4.92 1.152 7.12 2.016 2.21.864 4.23 1.896 6.05 3.096a27.836 27.836 0 014.83 3.816l-5.04 7.848z" fill="#fff"/><path d="M1040.74 153.696c0-1.728.31-3.336.94-4.824a13.044 13.044 0 012.66-3.888 12.674 12.674 0 014.03-2.592c1.54-.672 3.22-1.008 5.04-1.008 1.78 0 3.43.336 4.97 1.008 1.54.624 2.88 1.488 4.03 2.592 1.15 1.104 2.04 2.4 2.67 3.888.67 1.488 1 3.096 1 4.824 0 1.728-.33 3.36-1 4.896a11.599 11.599 0 01-2.67 3.888 12.565 12.565 0 01-4.03 2.592c-1.54.624-3.19.936-4.97.936-1.82 0-3.5-.312-5.04-.936a12.674 12.674 0 01-4.03-2.592c-1.1-1.104-1.99-2.4-2.66-3.888-.63-1.536-.94-3.168-.94-4.896z" fill="#FCAD38"/><path d="M46.971 89.997c10.597 26.32 19.484 47.855 19.997 47.855 1.367 0 10.255-24.44 10.255-27.859 0-1.538-5.811-17.433-12.99-35.378L51.244 42.14H28l18.971 47.856zM120.805 44.192c-.341 1.197-10.767 28.372-22.902 60.161l-22.047 57.94 3.589 8.374c4.102 10.084 8.716 11.11 12.134 2.564 1.368-2.905 4.957-11.622 8.033-18.971 8.717-21.022 22.219-33.328 36.917-33.499 12.819 0 5.128-8.033-9.571-9.742-4.785-.513-8.716-1.538-8.716-2.051 0-2.051 12.818-32.644 13.844-32.644.512 0 5.469 11.28 10.938 25.124 5.469 14.015 11.109 28.03 12.477 31.277l2.563 5.982 5.64-14.87 5.64-14.869-13.331-32.986-13.16-32.986-10.597-.513c-7.52-.341-10.938.171-11.451 1.71zM203.185 66.41c-5.128 13.503-15.382 40.165-22.732 59.307l-13.16 34.866 3.077 9.23c2.563 7.178 3.931 9.058 6.836 9.058 3.247 0 6.837-8.033 31.277-68.365L236 42.141h-23.244l-9.571 24.27z" fill="#fff"/></svg>

<svg width="1100" height="220" viewBox="0 0 1100 220" fill="none" xmlns="http://www.w3.org/2000/svg">
<path d="M331.592 124.896L321.872 96.168C321.152 94.344 320.384 92.208 319.568 89.76C318.752 87.264 317.936 84.576 317.12 81.696C316.4 84.624 315.632 87.336 314.816 89.832C314 92.328 313.232 94.488 312.512 96.312L302.864 124.896H331.592ZM370.256 165H351.392C349.28 165 347.576 164.52 346.28 163.56C344.984 162.552 344 161.28 343.328 159.744L337.136 141.456H297.248L291.056 159.744C290.528 161.088 289.568 162.312 288.176 163.416C286.832 164.472 285.152 165 283.136 165H264.128L304.736 60.096H329.648L370.256 165ZM396.815 101.856C399.119 97.824 401.759 94.656 404.735 92.352C407.759 90.048 411.215 88.896 415.103 88.896C418.463 88.896 421.199 89.688 423.311 91.272L421.871 107.688C421.631 108.744 421.223 109.464 420.647 109.848C420.119 110.232 419.375 110.424 418.415 110.424C418.031 110.424 417.527 110.4 416.903 110.352C416.279 110.304 415.631 110.256 414.959 110.208C414.287 110.112 413.591 110.04 412.871 109.992C412.199 109.896 411.575 109.848 410.999 109.848C407.735 109.848 405.119 110.712 403.151 112.44C401.231 114.168 399.599 116.568 398.255 119.64V165H375.935V90.336H389.183C390.287 90.336 391.199 90.432 391.919 90.624C392.687 90.816 393.311 91.128 393.791 91.56C394.319 91.944 394.703 92.472 394.943 93.144C395.231 93.816 395.471 94.632 395.663 95.592L396.815 101.856ZM475.343 92.856C469.103 92.856 463.535 97.08 458.639 105.528C453.743 113.88 451.295 122.232 451.295 130.584C451.295 148.056 455.807 156.792 464.831 156.792C471.263 156.792 476.495 152.616 480.527 144.264C484.559 135.816 486.575 126.36 486.575 115.896C486.575 100.536 482.831 92.856 475.343 92.856ZM463.103 79.896C464.159 79.896 465.119 80.232 465.983 80.904C466.943 81.48 467.423 82.104 467.423 82.776C457.727 89.496 451.919 98.856 449.999 110.856C452.015 105.48 454.463 100.824 457.343 96.888C460.319 92.952 463.391 89.976 466.559 87.96C472.607 84.216 478.511 82.344 484.271 82.344C490.031 82.344 494.927 85.176 498.959 90.84C502.991 96.504 505.007 104.088 505.007 113.592C505.007 124.248 502.847 134.04 498.527 142.968C493.727 153.048 486.911 160.008 478.079 163.848C473.087 166.056 467.615 167.16 461.663 167.16C453.311 167.16 446.015 163.944 439.775 157.512C433.631 150.984 430.559 141.672 430.559 129.576C430.559 117.384 433.535 106.68 439.487 97.464C445.439 88.152 453.311 82.296 463.103 79.896ZM540.386 98.4C541.826 97.056 543.314 95.808 544.85 94.656C546.386 93.504 548.018 92.544 549.746 91.776C551.522 90.96 553.418 90.336 555.434 89.904C557.498 89.424 559.73 89.184 562.13 89.184C566.21 89.184 569.81 89.904 572.93 91.344C576.098 92.736 578.762 94.704 580.922 97.248C583.082 99.744 584.714 102.744 585.818 106.248C586.922 109.704 587.474 113.472 587.474 117.552V165H565.154V117.552C565.154 113.904 564.314 111.072 562.634 109.056C560.954 106.992 558.482 105.96 555.218 105.96C552.77 105.96 550.466 106.488 548.306 107.544C546.194 108.552 544.13 109.944 542.114 111.72V165H519.794V90.336H533.618C536.402 90.336 538.226 91.584 539.09 94.08L540.386 98.4ZM747.431 60.096L715.031 165H692.999L673.271 99.984C672.887 98.976 672.527 97.872 672.191 96.672C671.855 95.424 671.519 94.128 671.183 92.784C670.847 94.128 670.511 95.424 670.175 96.672C669.839 97.872 669.479 98.976 669.095 99.984L649.079 165H627.047L594.647 60.096H615.095C617.207 60.096 618.959 60.576 620.351 61.536C621.791 62.496 622.727 63.768 623.159 65.352L637.559 120.072C637.991 121.8 638.423 123.696 638.855 125.76C639.287 127.776 639.719 129.888 640.151 132.096C641.015 127.584 642.071 123.576 643.319 120.072L660.311 65.352C660.743 64.008 661.655 62.808 663.047 61.752C664.487 60.648 666.215 60.096 668.231 60.096H675.431C677.543 60.096 679.247 60.6 680.543 61.608C681.839 62.568 682.823 63.816 683.495 65.352L700.343 120.072C701.591 123.432 702.647 127.248 703.511 131.52C703.895 129.36 704.279 127.344 704.663 125.472C705.095 123.552 705.527 121.752 705.959 120.072L720.359 65.352C720.743 63.96 721.655 62.736 723.095 61.68C724.535 60.624 726.263 60.096 728.279 60.096H747.431ZM799.765 92.856C793.525 92.856 787.957 97.08 783.061 105.528C778.165 113.88 775.717 122.232 775.717 130.584C775.717 148.056 780.229 156.792 789.253 156.792C795.685 156.792 800.917 152.616 804.949 144.264C808.981 135.816 810.997 126.36 810.997 115.896C810.997 100.536 807.253 92.856 799.765 92.856ZM787.525 79.896C788.581 79.896 789.541 80.232 790.405 80.904C791.365 81.48 791.845 82.104 791.845 82.776C782.149 89.496 776.341 98.856 774.421 110.856C776.437 105.48 778.885 100.824 781.765 96.888C784.741 92.952 787.813 89.976 790.981 87.96C797.029 84.216 802.933 82.344 808.693 82.344C814.453 82.344 819.349 85.176 823.381 90.84C827.413 96.504 829.429 104.088 829.429 113.592C829.429 124.248 827.269 134.04 822.949 142.968C818.149 153.048 811.333 160.008 802.501 163.848C797.509 166.056 792.037 167.16 786.085 167.16C777.733 167.16 770.437 163.944 764.197 157.512C758.053 150.984 754.981 141.672 754.981 129.576C754.981 117.384 757.957 106.68 763.909 97.464C769.861 88.152 777.733 82.296 787.525 79.896ZM865.096 101.856C867.4 97.824 870.04 94.656 873.016 92.352C876.04 90.048 879.496 88.896 883.384 88.896C886.744 88.896 889.48 89.688 891.592 91.272L890.152 107.688C889.912 108.744 889.504 109.464 888.928 109.848C888.4 110.232 887.656 110.424 886.696 110.424C886.312 110.424 885.808 110.4 885.184 110.352C884.56 110.304 883.912 110.256 883.24 110.208C882.568 110.112 881.872 110.04 881.152 109.992C880.48 109.896 879.856 109.848 879.28 109.848C876.016 109.848 873.4 110.712 871.432 112.44C869.512 114.168 867.88 116.568 866.536 119.64V165H844.216V90.336H857.464C858.568 90.336 859.48 90.432 860.2 90.624C860.968 90.816 861.592 91.128 862.072 91.56C862.6 91.944 862.984 92.472 863.224 93.144C863.512 93.816 863.752 94.632 863.944 95.592L865.096 101.856ZM921.521 57.216V117.624H924.833C926.225 117.624 927.281 117.432 928.001 117.048C928.721 116.616 929.441 115.92 930.161 114.96L944.273 93.936C945.137 92.736 946.121 91.848 947.225 91.272C948.329 90.648 949.745 90.336 951.473 90.336H971.921L952.625 116.904C950.801 119.304 948.641 121.272 946.145 122.808C947.249 123.624 948.257 124.584 949.169 125.688C950.081 126.744 950.945 127.944 951.761 129.288L972.785 165H952.625C950.945 165 949.505 164.736 948.305 164.208C947.105 163.632 946.097 162.648 945.281 161.256L931.169 134.832C930.497 133.632 929.801 132.864 929.081 132.528C928.361 132.144 927.281 131.952 925.841 131.952H921.521V165H899.201V57.216H921.521ZM1027.09 106.68C1026.51 107.592 1025.89 108.24 1025.21 108.624C1024.59 109.008 1023.77 109.2 1022.77 109.2C1021.71 109.2 1020.65 108.984 1019.6 108.552C1018.54 108.072 1017.39 107.568 1016.14 107.04C1014.94 106.512 1013.57 106.032 1012.04 105.6C1010.5 105.12 1008.75 104.88 1006.78 104.88C1003.95 104.88 1001.77 105.432 1000.23 106.536C998.742 107.592 997.998 109.08 997.998 111C997.998 112.392 998.478 113.544 999.438 114.456C1000.45 115.368 1001.77 116.184 1003.4 116.904C1005.03 117.576 1006.88 118.224 1008.94 118.848C1011.01 119.472 1013.12 120.168 1015.28 120.936C1017.44 121.704 1019.55 122.616 1021.61 123.672C1023.68 124.68 1025.53 125.952 1027.16 127.488C1028.79 128.976 1030.09 130.8 1031.05 132.96C1032.05 135.12 1032.56 137.712 1032.56 140.736C1032.56 144.432 1031.89 147.84 1030.54 150.96C1029.2 154.08 1027.18 156.768 1024.49 159.024C1021.85 161.28 1018.57 163.032 1014.63 164.28C1010.74 165.528 1006.25 166.152 1001.17 166.152C998.622 166.152 996.078 165.912 993.534 165.432C990.99 164.952 988.518 164.304 986.118 163.488C983.766 162.672 981.582 161.712 979.566 160.608C977.55 159.456 975.822 158.232 974.382 156.936L979.566 148.728C980.142 147.768 980.862 147.024 981.726 146.496C982.638 145.92 983.79 145.632 985.182 145.632C986.478 145.632 987.63 145.92 988.638 146.496C989.694 147.072 990.822 147.696 992.022 148.368C993.222 149.04 994.614 149.664 996.198 150.24C997.83 150.816 999.87 151.104 1002.32 151.104C1004.05 151.104 1005.51 150.936 1006.71 150.6C1007.91 150.216 1008.87 149.712 1009.59 149.088C1010.31 148.464 1010.84 147.768 1011.17 147C1011.51 146.232 1011.68 145.44 1011.68 144.624C1011.68 143.136 1011.17 141.912 1010.17 140.952C1009.16 139.992 1007.84 139.176 1006.21 138.504C1004.57 137.784 1002.7 137.136 1000.59 136.56C998.526 135.936 996.414 135.24 994.254 134.472C992.094 133.704 989.958 132.792 987.846 131.736C985.782 130.632 983.934 129.264 982.302 127.632C980.67 125.952 979.35 123.912 978.342 121.512C977.334 119.112 976.83 116.208 976.83 112.8C976.83 109.632 977.43 106.632 978.63 103.8C979.878 100.92 981.726 98.4 984.174 96.24C986.622 94.08 989.694 92.376 993.39 91.128C997.086 89.832 1001.41 89.184 1006.35 89.184C1009.04 89.184 1011.63 89.424 1014.13 89.904C1016.67 90.384 1019.05 91.056 1021.25 91.92C1023.46 92.784 1025.48 93.816 1027.3 95.016C1029.13 96.168 1030.73 97.44 1032.13 98.832L1027.09 106.68Z" fill="white"/>
<path d="M1040.74 153.696C1040.74 151.968 1041.05 150.36 1041.68 148.872C1042.35 147.384 1043.24 146.088 1044.34 144.984C1045.49 143.88 1046.84 143.016 1048.37 142.392C1049.91 141.72 1051.59 141.384 1053.41 141.384C1055.19 141.384 1056.84 141.72 1058.38 142.392C1059.92 143.016 1061.26 143.88 1062.41 144.984C1063.56 146.088 1064.45 147.384 1065.08 148.872C1065.75 150.36 1066.08 151.968 1066.08 153.696C1066.08 155.424 1065.75 157.056 1065.08 158.592C1064.45 160.08 1063.56 161.376 1062.41 162.48C1061.26 163.584 1059.92 164.448 1058.38 165.072C1056.84 165.696 1055.19 166.008 1053.41 166.008C1051.59 166.008 1049.91 165.696 1048.37 165.072C1046.84 164.448 1045.49 163.584 1044.34 162.48C1043.24 161.376 1042.35 160.08 1041.68 158.592C1041.05 157.056 1040.74 155.424 1040.74 153.696Z" fill="#FCAD38"/>
<path d="M46.9712 89.9968C57.5678 116.317 66.4552 137.852 66.9679 137.852C68.3352 137.852 77.2227 113.412 77.2227 109.993C77.2227 108.455 71.4117 92.5604 64.2334 74.6147L51.244 42.1414H39.622H28L46.9712 89.9968Z" fill="white"/>
<path d="M120.805 44.1924C120.464 45.3888 110.038 72.5638 97.9031 104.353L75.8555 162.293L79.4446 170.667C83.5465 180.751 88.1611 181.777 91.5794 173.231C92.9467 170.326 96.5358 161.609 99.6123 154.26C108.329 133.238 121.831 120.932 136.529 120.761C149.348 120.761 141.657 112.728 126.958 111.019C122.173 110.506 118.242 109.481 118.242 108.968C118.242 106.917 131.06 76.3239 132.086 76.3239C132.598 76.3239 137.555 87.6041 143.024 101.448C148.493 115.463 154.133 129.478 155.501 132.725L158.064 138.707L163.704 123.837L169.344 108.968L156.013 75.9821L142.853 42.996L132.256 42.4833C124.736 42.1415 121.318 42.6542 120.805 44.1924Z" fill="white"/>
<path d="M203.185 66.4109C198.057 79.9129 187.803 106.575 180.453 125.717L167.293 160.583L170.37 169.813C172.933 176.991 174.301 178.871 177.206 178.871C180.453 178.871 184.043 170.838 208.483 110.506L236 42.1413H224.378H212.756L203.185 66.4109Z" fill="white"/>
</svg>
